X:1803
T:Lady Baird's Reel
P:Lady Baird's Reel
C:Traditional?
R:Reel (8x32)
B:RSCDS 18-3
Z:Anselm Lingnau <anselm@strathspey.org>
M:2/2
L:1/8
K:F
C|"F"F2AF cFAF|"Bb"df"C7"eg "F"fcAF|F2AF cFAF|"C7"GBAG "F"F2 FC|
  "F"F2AF cFAF|"Bb"df"C7"eg "F"fcAF|F2AF cFAF|"C7"GBAG "F"F2 F||
e|"Dm"f2df "C"e2ce|"Dm"fefg adde|"Dm"f2df "C"egcB|"F"Acfc AFFe|
  "Dm"f2df "C"e2ce|"Dm"fefg adde|"F"af"C7"ge "Dm"fd"C7"cB|"F"Acfc AFF|]

